X:1
T:Alexander's Hornpipe
R:hornpipe
M:4/4
L:1/8
K:D
(3ABc | d>AF>A D>FA>d | f>dc>d A2e>f | (3ggg g>e f>dc>d | (3efe (3dcB A2 (3ABc |
d>AF>A D>FA>d | f>dc>d A2e>f | (3ggg g>e f>dc>d | (3efe d>c d2 ::
A>G | F>Ad>A F>Ad>A | G>Bd>B G>Bd>B | A>ce>c A>ce>c | d>fa>f (3gfe (3dcB |
F>Ad>A F>Ad>A | G>Bd>B G>Bd>B | A>ce>f g>ec>d | (3efe d>c d2 :|
